src/assets/icons/svg/chip.svg

<svg width="34" height="28" viewBox="0 0 34 28" fill="none" xmlns="http://www.w3.org/2000/svg">
<path d="M34 23.1961L34 4.80393C34 2.155 31.8547 -9.37733e-08 29.2181 -2.09024e-07L4.78228 -1.27715e-06C2.14528 -1.39241e-06 -9.42139e-08 2.15536 -2.09987e-07 4.80393L-1.01393e-06 23.1961C-1.12972e-06 25.845 2.14565 28 4.78228 28L29.2181 28C31.8547 28 34 25.845 34 23.1961ZM29.2181 1.40186C31.0854 1.40186 32.6045 2.92785 32.6045 4.80393L32.6045 9.07815L30.0489 9.07815C29.6636 9.07815 29.3511 9.39174 29.3511 9.77908C29.3511 10.1661 29.6636 10.48 30.0489 10.48L32.6045 10.48L32.6045 17.52L24.1247 17.52C24.0077 17.52 23.8947 17.5025 23.7882 17.4703C23.7715 17.4641 23.7544 17.4583 23.7369 17.4535C23.2834 17.2925 22.9574 16.8574 22.9574 16.3474L22.9574 11.6526C22.9574 11.1422 23.2834 10.7074 23.7369 10.5465C23.7544 10.5413 23.7715 10.5359 23.7882 10.5297C23.8947 10.4972 24.0077 10.48 24.1247 10.48L26.7904 10.48C27.1757 10.48 27.4882 10.1661 27.4882 9.77908C27.4882 9.39174 27.1757 9.07815 26.7904 9.07815L24.2436 9.07815L24.2436 8.75652C24.2436 6.12949 22.6994 3.73939 20.3099 2.66792C20.2052 2.62082 20.1372 2.51459 20.1372 2.3974L20.1372 1.40186L29.2181 1.40186ZM1.39554 9.07815L1.39554 4.80393C1.39554 2.92821 2.91465 1.40186 4.78228 1.40186L13.8628 1.40186L13.8628 2.3974C13.8628 2.51459 13.7952 2.62082 13.6901 2.66792C11.3006 3.73976 9.75644 6.12949 9.75644 8.75689L9.75644 9.07815L1.39554 9.07815ZM4.78228 26.5981C2.91465 26.5981 1.39554 25.0722 1.39554 23.1961L1.39554 18.9218L4.20153 18.9218C4.58712 18.9218 4.8993 18.6083 4.8993 18.2209C4.8993 17.8339 4.58712 17.52 4.20153 17.52L1.39554 17.52L1.39554 10.48L9.87564 10.48C9.9923 10.48 10.1053 10.4975 10.2118 10.5297C10.2285 10.5359 10.246 10.5417 10.2634 10.5468C10.717 10.7078 11.043 11.1426 11.043 11.6526L11.043 16.3474C11.043 16.8574 10.717 17.2925 10.2634 17.4535C10.246 17.4587 10.2285 17.4641 10.2118 17.4707C10.1053 17.5028 9.9923 17.52 9.87564 17.52L7.45998 17.52C7.07475 17.52 6.7622 17.8339 6.7622 18.2209C6.7622 18.6083 7.07475 18.9218 7.45998 18.9218L9.75644 18.9218L9.75644 19.2435C9.75644 21.8705 11.3006 24.2606 13.6901 25.3321C13.7952 25.3792 13.8628 25.4854 13.8628 25.6026L13.8628 26.5981L4.78228 26.5981ZM15.2583 26.5981L15.2583 25.6026C15.2583 24.9331 14.8662 24.3245 14.2592 24.0522C12.3716 23.2056 11.152 21.3182 11.152 19.2435L11.152 18.5794C11.9203 18.134 12.4385 17.3006 12.4385 16.3474L12.4385 11.6526C12.4385 10.6998 11.9203 9.86597 11.152 9.42095L11.152 8.75689C11.152 6.68221 12.3716 4.79444 14.2592 3.94821C14.8662 3.67587 15.2583 3.0673 15.2583 2.3974L15.2583 1.40186L18.7417 1.40186L18.7417 2.3974C18.7417 3.06694 19.1338 3.67551 19.7408 3.94785C21.6284 4.79444 22.848 6.68184 22.848 8.75652L22.848 9.42058C22.0797 9.86597 21.5619 10.6994 21.5619 11.6526L21.5619 16.3474C21.5619 17.3002 22.0797 18.134 22.848 18.579L22.848 19.2431C22.848 21.3182 21.6284 23.2056 19.7408 24.0518C19.1338 24.3241 18.7417 24.9327 18.7417 25.6026L18.7417 26.5981L15.2583 26.5981ZM20.1372 26.5981L20.1372 25.6026C20.1372 25.4854 20.2052 25.3792 20.3099 25.3321C22.6997 24.2606 24.2436 21.8705 24.2436 19.2435L24.2436 18.9218L32.6045 18.9218L32.6045 23.1961C32.6045 25.0722 31.0853 26.5981 29.2181 26.5981L20.1372 26.5981Z" fill="#EAEAEA"/>
</svg>

<?xml version="1.0" encoding="iso-8859-1"?>
<!-- Generator: Adobe Illustrator 23.1.0, SVG Export Plug-In . SVG Version: 6.00 Build 0)  -->
<svg version="1.1" id="&#x421;&#x43B;&#x43E;&#x439;_1"
	 xmlns="http://www.w3.org/2000/svg" xmlns:xlink="http://www.w3.org/1999/xlink" x="0px" y="0px" viewBox="0 0 34 28"
	 style="enable-background:new 0 0 34 28;" xml:space="preserve">
<path style="fill:#EAEAEA;" d="M34,23.196V4.804C34,2.155,31.855,0,29.218,0L4.782,0C2.145,0,0,2.155,0,4.804l0,18.392
	C0,25.845,2.146,28,4.782,28h24.436C31.855,28,34,25.845,34,23.196z M29.218,1.402c1.867,0,3.386,1.526,3.386,3.402v4.274h-2.556
	c-0.385,0-0.698,0.314-0.698,0.701c0,0.387,0.313,0.701,0.698,0.701h2.556v7.04h-8.48c-0.117,0-0.23-0.017-0.337-0.05
	c-0.017-0.006-0.034-0.012-0.051-0.017c-0.454-0.161-0.78-0.596-0.78-1.106v-4.695c0-0.51,0.326-0.945,0.78-1.106
	c0.017-0.005,0.035-0.011,0.051-0.017c0.106-0.033,0.219-0.05,0.337-0.05h2.666c0.385,0,0.698-0.314,0.698-0.701
	c0-0.387-0.313-0.701-0.698-0.701h-2.547V8.757c0-2.627-1.544-5.017-3.934-6.089c-0.105-0.047-0.173-0.153-0.173-0.271V1.402H29.218
	z M1.396,9.078V4.804c0-1.876,1.519-3.402,3.387-3.402h9.081v0.996c0,0.117-0.068,0.223-0.173,0.271
	C11.301,3.74,9.756,6.129,9.756,8.757v0.321H1.396z M4.782,26.598c-1.868,0-3.387-1.526-3.387-3.402v-4.274h2.806
	c0.386,0,0.698-0.314,0.698-0.701c0-0.387-0.312-0.701-0.698-0.701H1.396v-7.04h8.48c0.117,0,0.23,0.018,0.336,0.05
	c0.017,0.006,0.034,0.012,0.052,0.017c0.454,0.161,0.78,0.596,0.78,1.106v4.695c0,0.51-0.326,0.945-0.78,1.106
	c-0.017,0.005-0.035,0.011-0.052,0.017c-0.106,0.032-0.219,0.049-0.336,0.049H7.46c-0.385,0-0.698,0.314-0.698,0.701
	c0,0.387,0.313,0.701,0.698,0.701h2.296v0.322c0,2.627,1.544,5.017,3.934,6.089c0.105,0.047,0.173,0.153,0.173,0.271v0.996H4.782z
	 M15.258,26.598v-0.996c0-0.67-0.392-1.278-0.999-1.55c-1.888-0.847-3.107-2.734-3.107-4.809v-0.664
	c0.768-0.445,1.286-1.279,1.286-2.232v-4.695c0-0.953-0.518-1.787-1.286-2.232V8.757c0-2.075,1.22-3.962,3.107-4.809
	c0.607-0.272,0.999-0.881,0.999-1.551V1.402h3.483v0.996c0,0.67,0.392,1.278,0.999,1.55c1.888,0.847,3.107,2.734,3.107,4.809v0.664
	c-0.768,0.445-1.286,1.279-1.286,2.232v4.695c0,0.953,0.518,1.787,1.286,2.232v0.664c0,2.075-1.22,3.963-3.107,4.809
	c-0.607,0.272-0.999,0.881-0.999,1.551v0.996H15.258z M20.137,26.598v-0.996c0-0.117,0.068-0.223,0.173-0.271
	c2.39-1.072,3.934-3.462,3.934-6.089v-0.322h8.361v4.274c0,1.876-1.519,3.402-3.386,3.402H20.137z"/>
</svg>
